X:363
T: Tong qian ge
N: C1335
O: China, Hunan, Jiangshui
S: MM, Seite 24, 1]
N: Die Stuecke sind meist uebersteuert, also verzerrt.
R: Xiaodiao. Yule]
M: 2/4
L: 1/16
K: Bb
B2c2d2cd | B2GBc4 | cdBGF4
G3cBcBG | GBD2F3G | BcG2F4
G3cB2BG | BcGBc4 | BcGBc4
c3dB2G2 | F3GBcBG | GBD2F4 | GFD2F4

